src/assets/apple.svg

<svg width="129" height="43" viewBox="0 0 129 43" fill="none" xmlns="http://www.w3.org/2000/svg">
<path d="M8.27448 42.0457C7.9415 42.0457 7.61661 42.0414 7.28626 42.0339C6.60194 42.025 5.91923 41.9651 5.2437 41.8547C4.61381 41.7456 4.00362 41.5426 3.43326 41.2524C2.8681 40.9646 2.35264 40.5873 1.90661 40.1349C1.45409 39.6878 1.07734 39.1693 0.791298 38.5998C0.502132 38.0267 0.302011 37.4123 0.197907 36.7782C0.0855204 36.0968 0.0247315 35.4078 0.0160642 34.7171C0.00907026 34.4853 0 33.7135 0 33.7135V8.32052C0 8.32052 0.00961666 7.56051 0.0160642 7.33714C0.0243908 6.6476 0.0848515 5.9597 0.196923 5.27939C0.301232 4.6435 0.501523 4.02738 0.790861 3.45235C1.07581 2.88328 1.45042 2.36433 1.90016 1.91563C2.34944 1.46266 2.86657 1.0834 3.43271 0.791666C4.00178 0.502456 4.61082 0.300915 5.23944 0.193794C5.91719 0.0823547 6.60229 0.0221316 7.28899 0.0136304L8.27503 0H120.581L121.579 0.0139603C122.259 0.0220921 122.938 0.0818398 123.61 0.192695C124.245 0.30119 124.86 0.504171 125.436 0.794964C126.57 1.38287 127.493 2.313 128.075 3.45499C128.359 4.02608 128.557 4.6372 128.66 5.26762C128.773 5.9535 128.836 6.6468 128.849 7.34198C128.853 7.65328 128.853 7.98767 128.853 8.32052C128.862 8.73273 128.862 9.12504 128.862 9.52066V32.526C128.862 32.9254 128.862 33.315 128.853 33.7079C128.853 34.0654 128.853 34.3928 128.848 34.7299C128.836 35.4127 128.773 36.0936 128.662 36.7673C128.56 37.406 128.361 38.0251 128.071 38.603C127.783 39.1663 127.409 39.6803 126.962 40.1262C126.515 40.581 125.999 40.9606 125.432 41.2502C124.858 41.5426 124.244 41.7463 123.61 41.8545C122.934 41.9655 122.251 42.0254 121.567 42.0338C121.24 42.0415 120.913 42.0454 120.586 42.0456L119.402 42.0478L8.27448 42.0457Z" fill="black"/>
<path d="M26.1159 21.3534C26.1277 20.436 26.37 19.5364 26.8202 18.7384C27.2705 17.9404 27.9141 17.27 28.6911 16.7894C28.1975 16.0803 27.5462 15.4966 26.7891 15.0849C26.032 14.6732 25.1899 14.4447 24.3296 14.4176C22.4945 14.2238 20.7155 15.5221 19.7803 15.5221C18.8272 15.5221 17.3874 14.4369 15.837 14.469C14.8342 14.5015 13.8568 14.7948 13.0002 15.3203C12.1436 15.8458 11.4368 16.5855 10.9489 17.4674C8.83545 21.1482 10.4119 26.5575 12.4366 29.5327C13.4495 30.9896 14.6332 32.6169 16.1822 32.5592C17.698 32.496 18.264 31.587 20.0938 31.587C21.9066 31.587 22.4377 32.5592 24.0181 32.5225C25.6446 32.496 26.6693 31.0592 27.6467 29.5886C28.3745 28.5505 28.9345 27.4032 29.306 26.1892C28.3611 25.7872 27.5547 25.1142 26.9874 24.2543C26.4201 23.3944 26.117 22.3855 26.1159 21.3534ZM23.1308 12.4609C24.0177 11.39 24.4546 10.0136 24.3488 8.6239C22.9939 8.76704 21.7423 9.41839 20.8435 10.4482C20.404 10.9513 20.0674 11.5365 19.853 12.1705C19.6385 12.8046 19.5504 13.4749 19.5937 14.1431C20.2713 14.1502 20.9418 14.0024 21.5545 13.711C22.1672 13.4196 22.7062 12.9922 23.1308 12.4609ZM45.2765 28.8711H40.1038L38.8616 32.5606H36.6705L41.5701 18.9103H43.8464L48.7459 32.5606H46.5176L45.2765 28.8711ZM40.6395 27.1685H44.7397L42.7184 21.1808H42.6618L40.6395 27.1685ZM59.3271 27.5851C59.3271 30.6777 57.6814 32.6647 55.1981 32.6647C54.5691 32.6978 53.9434 32.552 53.3928 32.2441C52.8423 31.9361 52.3891 31.4785 52.0851 30.9235H52.0381V35.8529H50.0072V22.6084H51.9731V24.2638H52.0104C52.3284 23.7114 52.7893 23.2562 53.344 22.9463C53.8987 22.6365 54.5266 22.4838 55.1608 22.5043C57.6718 22.5043 59.3271 24.5011 59.3271 27.5851ZM57.2396 27.5851C57.2396 25.5702 56.2045 24.2455 54.6251 24.2455C53.0733 24.2455 52.0297 25.598 52.0297 27.585C52.0297 29.5903 53.0733 30.9333 54.6251 30.9333C56.2045 30.9333 57.2396 29.6184 57.2396 27.5851ZM70.2166 27.5851C70.2166 30.6777 68.5711 32.6647 66.0877 32.6647C65.4586 32.6977 64.833 32.552 64.2825 32.244C63.7319 31.9361 63.2787 31.4785 62.9747 30.9235H62.9277V35.8529H60.8969V22.6084H62.8626V24.2638H62.9C63.2179 23.7114 63.6788 23.2562 64.2335 22.9463C64.7883 22.6365 65.4161 22.4838 66.0503 22.5043C68.5615 22.5043 70.2166 24.5011 70.2166 27.5851ZM68.1293 27.5851C68.1293 25.5702 67.0941 24.2455 65.5146 24.2455C63.9629 24.2455 62.9192 25.598 62.9192 27.585C62.9192 29.5903 63.9629 30.9333 65.5146 30.9333C67.0941 30.9333 68.1293 29.6184 68.1293 27.5851ZM77.4138 28.7573C77.5643 30.1109 78.8716 30.9998 80.658 30.9998C82.3698 30.9998 83.6014 30.1109 83.6014 28.8903C83.6014 27.8308 82.8586 27.1964 81.1 26.7617L79.3411 26.3355C76.8493 25.73 75.6924 24.5578 75.6924 22.6556C75.6924 20.3004 77.7329 18.6828 80.6303 18.6828C83.4978 18.6828 85.4636 20.3004 85.5297 22.6556H83.4796C83.3569 21.2934 82.2375 20.4711 80.6014 20.4711C78.9655 20.4711 77.846 21.3031 77.846 22.5139C77.846 23.479 78.5611 24.0469 80.3101 24.4815L81.8052 24.8509C84.5895 25.5132 85.7464 26.6382 85.7464 28.6348C85.7464 31.1886 83.7241 32.7881 80.5075 32.7881C77.498 32.7881 75.4661 31.2261 75.3349 28.7572L77.4138 28.7573ZM90.1293 20.2533V22.6084H92.0108V24.2262H90.1293V29.7127C90.1293 30.565 90.506 30.9622 91.3332 30.9622C91.5565 30.9582 91.7795 30.9425 92.0012 30.9149V32.5231C91.6294 32.5929 91.2514 32.6245 90.8732 32.6174C88.8701 32.6174 88.0889 31.8607 88.0889 29.9305V24.2262H86.6503V22.6084H88.0889V20.2533H90.1293ZM93.1005 27.5851C93.1005 24.4537 94.9339 22.4861 97.793 22.4861C100.662 22.4861 102.486 24.4537 102.486 27.5851C102.486 30.7249 100.671 32.684 97.7928 32.684C94.9157 32.684 93.1005 30.7249 93.1005 27.5851ZM100.417 27.5851C100.417 25.4371 99.4385 24.1692 97.7928 24.1692C96.1473 24.1692 95.1697 25.4467 95.1697 27.5851C95.1697 29.7417 96.1473 30.9998 97.7928 30.9998C99.4385 30.9998 100.417 29.7417 100.417 27.5851ZM104.161 22.6084H106.098V24.3024H106.145C106.276 23.7733 106.584 23.3058 107.017 22.9783C107.451 22.6509 107.983 22.4835 108.525 22.5043C108.759 22.5035 108.992 22.5291 109.22 22.5805V24.4913C108.925 24.4005 108.617 24.3588 108.308 24.3679C108.013 24.3558 107.719 24.4081 107.446 24.5212C107.173 24.6343 106.927 24.8055 106.726 25.0231C106.525 25.2406 106.373 25.4993 106.281 25.7814C106.189 26.0636 106.158 26.3625 106.192 26.6576V32.5606H104.161V22.6084ZM118.584 29.6375C118.311 31.4442 116.562 32.684 114.324 32.684C111.445 32.684 109.659 30.7443 109.659 27.6323C109.659 24.5107 111.455 22.4861 114.238 22.4861C116.976 22.4861 118.697 24.3775 118.697 27.395V28.0949H111.709V28.2184C111.677 28.5846 111.722 28.9536 111.843 29.3008C111.963 29.648 112.156 29.9654 112.407 30.232C112.659 30.4987 112.964 30.7084 113.303 30.8472C113.641 30.9861 114.005 31.0509 114.371 31.0373C114.85 31.0826 115.332 30.9708 115.744 30.7186C116.155 30.4664 116.475 30.0872 116.655 29.6375H118.584ZM111.719 26.6672H116.665C116.683 26.3379 116.634 26.0083 116.519 25.6992C116.405 25.3901 116.228 25.1081 116 24.8709C115.772 24.6337 115.498 24.4465 115.195 24.3209C114.892 24.1954 114.566 24.1342 114.238 24.1413C113.907 24.1393 113.58 24.2033 113.274 24.3294C112.968 24.4555 112.689 24.6414 112.455 24.8762C112.221 25.1111 112.035 25.3902 111.909 25.6976C111.782 26.005 111.718 26.3346 111.719 26.6672ZM40.385 8.63566C40.8108 8.60492 41.238 8.66962 41.6359 8.82509C42.0338 8.98056 42.3925 9.22293 42.686 9.5347C42.9795 9.84648 43.2006 10.2199 43.3332 10.628C43.4659 11.0361 43.5068 11.4688 43.4531 11.8948C43.4531 13.9901 42.3272 15.1947 40.385 15.1947H38.0297V8.63555L40.385 8.63566ZM39.0425 14.267H40.2719C40.5761 14.2853 40.8806 14.2351 41.1631 14.1201C41.4456 14.0051 41.6991 13.8282 41.9051 13.6022C42.111 13.3763 42.2643 13.107 42.3538 12.8139C42.4432 12.5208 42.4666 12.2114 42.4222 11.9081C42.4634 11.606 42.4377 11.2984 42.3468 11.0075C42.256 10.7166 42.1023 10.4495 41.8968 10.2253C41.6913 10.0012 41.4391 9.82549 41.1581 9.7109C40.8772 9.59631 40.5746 9.54565 40.2719 9.56253H39.0425V14.267ZM44.5972 12.7175C44.5662 12.3923 44.6032 12.0641 44.7058 11.754C44.8083 11.4439 44.9742 11.1589 45.1927 10.9171C45.4111 10.6752 45.6775 10.482 45.9745 10.3498C46.2716 10.2176 46.5929 10.1493 46.9178 10.1493C47.2426 10.1493 47.5639 10.2176 47.861 10.3498C48.158 10.482 48.4244 10.6752 48.6429 10.9171C48.8614 11.1589 49.0272 11.4439 49.1297 11.754C49.2323 12.0641 49.2693 12.3923 49.2383 12.7175C49.2699 13.0432 49.2335 13.3719 49.1312 13.6826C49.029 13.9932 48.8633 14.2789 48.6447 14.5212C48.4261 14.7636 48.1596 14.9573 47.8622 15.0898C47.5648 15.2223 47.2431 15.2908 46.9178 15.2908C46.5925 15.2908 46.2708 15.2223 45.9733 15.0898C45.6759 14.9573 45.4094 14.7636 45.1908 14.5212C44.9722 14.2789 44.8065 13.9932 44.7043 13.6826C44.6021 13.3719 44.5656 13.0432 44.5972 12.7175ZM48.2395 12.7175C48.2395 11.6446 47.7603 11.0171 46.9194 11.0171C46.0752 11.0171 45.6004 11.6446 45.6004 12.7175C45.6004 13.7991 46.0753 14.4217 46.9194 14.4217C47.7603 14.4217 48.2395 13.7948 48.2395 12.7175ZM55.4078 15.1946H54.4003L53.3833 11.5491H53.3065L52.2938 15.1946H51.296L49.9396 10.2447H50.9245L51.8061 14.0217H51.8786L52.8904 10.2447H53.822L54.8337 14.0217H54.9105L55.7877 10.2447H56.7589L55.4078 15.1946ZM57.8997 10.2448H58.8345V11.0311H58.9071C59.0302 10.7487 59.2379 10.5119 59.5011 10.3538C59.7643 10.1957 60.07 10.1242 60.3756 10.1492C60.615 10.1311 60.8555 10.1674 61.079 10.2555C61.3026 10.3435 61.5037 10.481 61.6672 10.6578C61.8308 10.8346 61.9527 11.0462 62.024 11.2768C62.0952 11.5075 62.114 11.7513 62.0789 11.9902V15.1944H61.1077V12.2355C61.1077 11.4401 60.764 11.0445 60.0458 11.0445C59.8833 11.0369 59.721 11.0648 59.5701 11.1261C59.4193 11.1875 59.2834 11.281 59.1718 11.4001C59.0602 11.5192 58.9755 11.6612 58.9236 11.8164C58.8716 11.9715 58.8536 12.1361 58.8708 12.2989V15.1946H57.8997V10.2448ZM63.6263 8.31249H64.5973V15.1946H63.6263V8.31249ZM65.9474 12.7175C65.9164 12.3922 65.9534 12.064 66.056 11.7539C66.1585 11.4438 66.3244 11.1587 66.5429 10.9168C66.7615 10.675 67.0278 10.4817 67.3249 10.3495C67.6221 10.2173 67.9434 10.149 68.2683 10.149C68.5932 10.149 68.9145 10.2173 69.2116 10.3495C69.5087 10.4817 69.7751 10.675 69.9936 10.9168C70.2121 11.1587 70.378 11.4438 70.4806 11.7539C70.5831 12.064 70.6201 12.3922 70.5892 12.7175C70.6206 13.0432 70.584 13.3718 70.4817 13.6823C70.3793 13.9929 70.2136 14.2784 69.995 14.5207C69.7764 14.7629 69.5099 14.9565 69.2125 15.089C68.9151 15.2215 68.5935 15.2899 68.2683 15.2899C67.943 15.2899 67.6214 15.2215 67.324 15.089C67.0267 14.9565 66.7601 14.7629 66.5415 14.5207C66.323 14.2784 66.1572 13.9929 66.0549 13.6823C65.9525 13.3718 65.9159 13.0432 65.9474 12.7175ZM69.5897 12.7175C69.5897 11.6446 69.1105 11.0171 68.2696 11.0171C67.4254 11.0171 66.9506 11.6446 66.9506 12.7175C66.9506 13.7991 67.4255 14.4217 68.2696 14.4217C69.1105 14.4217 69.5897 13.7948 69.5897 12.7175ZM71.6115 13.7948C71.6115 12.9038 72.271 12.3901 73.4417 12.3171L74.7746 12.2398V11.8126C74.7746 11.2898 74.431 10.9946 73.7672 10.9946C73.2251 10.9946 72.8494 11.1948 72.7417 11.5448H71.8014C71.9006 10.6945 72.6958 10.1493 73.8121 10.1493C75.0457 10.1493 75.7415 10.7671 75.7415 11.8126V15.1946H74.8066V14.499H74.7298C74.5738 14.7485 74.3548 14.9519 74.0952 15.0884C73.8355 15.225 73.5445 15.2897 73.2518 15.2761C73.0452 15.2977 72.8364 15.2756 72.6389 15.211C72.4414 15.1465 72.2595 15.0411 72.1049 14.9015C71.9504 14.7619 71.8266 14.5914 71.7416 14.4007C71.6566 14.2101 71.6123 14.0037 71.6115 13.7948ZM74.7746 13.3718V12.958L73.573 13.0352C72.8953 13.0808 72.5879 13.3128 72.5879 13.7491C72.5879 14.1946 72.9721 14.4539 73.5004 14.4539C73.6552 14.4697 73.8116 14.4539 73.9602 14.4077C74.1088 14.3614 74.2467 14.2855 74.3656 14.1846C74.4844 14.0836 74.5819 13.9596 74.6522 13.82C74.7225 13.6804 74.7641 13.528 74.7746 13.3718ZM77.0179 12.7175C77.0179 11.1535 77.8172 10.1627 79.0605 10.1627C79.368 10.1485 79.6732 10.2225 79.9404 10.3763C80.2077 10.5301 80.4259 10.7572 80.5695 11.0311H80.6421V8.31238H81.6131V15.1944H80.6826V14.4123H80.6058C80.4511 14.6844 80.2253 14.9087 79.9529 15.0609C79.6805 15.2132 79.372 15.2875 79.0606 15.276C77.8087 15.276 77.0179 14.2853 77.0179 12.7175ZM78.0211 12.7175C78.0211 13.7673 78.5131 14.3992 79.3357 14.3992C80.1542 14.3992 80.6602 13.7583 80.6602 12.7217C80.6602 11.6902 80.149 11.0402 79.3357 11.0402C78.5183 11.0402 78.0211 11.6762 78.0211 12.7175ZM85.6312 12.7175C85.6002 12.3923 85.6372 12.0641 85.7397 11.754C85.8423 11.4439 86.0081 11.1589 86.2266 10.9171C86.4451 10.6752 86.7114 10.482 87.0085 10.3498C87.3056 10.2176 87.6269 10.1493 87.9517 10.1493C88.2766 10.1493 88.5978 10.2176 88.8949 10.3498C89.192 10.482 89.4583 10.6752 89.6768 10.9171C89.8953 11.1589 90.0612 11.4439 90.1637 11.754C90.2663 12.0641 90.3032 12.3923 90.2723 12.7175C90.3039 13.0432 90.2674 13.3719 90.1652 13.6826C90.0629 13.9932 89.8972 14.2789 89.6787 14.5212C89.4601 14.7636 89.1936 14.9573 88.8961 15.0898C88.5987 15.2223 88.277 15.2908 87.9517 15.2908C87.6264 15.2908 87.3047 15.2223 87.0073 15.0898C86.7099 14.9573 86.4433 14.7636 86.2248 14.5212C86.0062 14.2789 85.8405 13.9932 85.7383 13.6826C85.636 13.3719 85.5995 13.0432 85.6312 12.7175ZM89.2735 12.7175C89.2735 11.6446 88.7943 11.0171 87.9534 11.0171C87.1092 11.0171 86.6343 11.6446 86.6343 12.7175C86.6343 13.7991 87.1093 14.4217 87.9534 14.4217C88.7943 14.4217 89.2735 13.7948 89.2735 12.7175ZM91.5754 10.2448H92.5102V11.0311H92.5828C92.7059 10.7487 92.9135 10.5119 93.1768 10.3538C93.44 10.1957 93.7457 10.1242 94.0513 10.1492C94.2907 10.1311 94.5311 10.1674 94.7547 10.2555C94.9783 10.3435 95.1793 10.481 95.3429 10.6578C95.5065 10.8346 95.6284 11.0462 95.6997 11.2768C95.7709 11.5075 95.7897 11.7513 95.7545 11.9902V15.1944H94.7834V12.2355C94.7834 11.4401 94.4397 11.0445 93.7215 11.0445C93.5589 11.0369 93.3967 11.0648 93.2458 11.1261C93.0949 11.1875 92.9591 11.281 92.8475 11.4001C92.7359 11.5192 92.6512 11.6612 92.5992 11.8164C92.5473 11.9715 92.5293 12.1361 92.5465 12.2989V15.1946H91.5755L91.5754 10.2448ZM101.242 9.01248V10.2674H102.308V11.0901H101.242V13.6353C101.242 14.1538 101.454 14.3809 101.938 14.3809C102.062 14.3805 102.185 14.3729 102.308 14.3583V15.172C102.134 15.2034 101.957 15.2201 101.78 15.2219C100.7 15.2219 100.27 14.8397 100.27 13.8855V11.0901H99.4886V10.2673H100.27V9.01259L101.242 9.01248ZM103.635 8.31249H104.597V11.0402H104.674C104.803 10.7552 105.017 10.5171 105.285 10.3584C105.554 10.1997 105.864 10.1282 106.175 10.1535C106.413 10.1404 106.651 10.1804 106.872 10.2706C107.093 10.3608 107.292 10.499 107.453 10.6752C107.615 10.8515 107.736 11.0615 107.808 11.2903C107.88 11.5191 107.901 11.7611 107.869 11.9989V15.1946H106.897V12.2398C106.897 11.4491 106.531 11.0488 105.845 11.0488C105.678 11.035 105.51 11.0581 105.353 11.1165C105.196 11.1748 105.053 11.2669 104.935 11.3864C104.817 11.506 104.727 11.65 104.67 11.8084C104.613 11.9669 104.591 12.1359 104.606 12.3037V15.1946H103.635V8.31249ZM113.532 13.858C113.4 14.3104 113.114 14.7017 112.724 14.9635C112.334 15.2253 111.866 15.3409 111.4 15.2901C111.075 15.2987 110.753 15.2362 110.455 15.1071C110.158 14.9779 109.891 14.785 109.675 14.542C109.459 14.2989 109.298 14.0114 109.203 13.6994C109.108 13.3874 109.082 13.0584 109.126 12.7352C109.083 12.4111 109.11 12.0814 109.204 11.7684C109.299 11.4555 109.459 11.1667 109.674 10.9214C109.889 10.6762 110.154 10.4804 110.451 10.3471C110.748 10.2139 111.07 10.1464 111.395 10.1492C112.764 10.1492 113.591 11.0901 113.591 12.6445V12.9853H110.116V13.0401C110.101 13.2217 110.123 13.4045 110.182 13.5768C110.241 13.7491 110.336 13.9071 110.459 14.0406C110.583 14.1741 110.732 14.2802 110.899 14.3521C111.065 14.424 111.245 14.4601 111.426 14.4581C111.659 14.4861 111.894 14.4441 112.102 14.3372C112.311 14.2304 112.483 14.0635 112.597 13.858H113.532ZM110.116 12.2629H112.601C112.613 12.0968 112.591 11.9299 112.535 11.773C112.48 11.6162 112.392 11.4727 112.278 11.352C112.164 11.2312 112.026 11.1358 111.873 11.0719C111.72 11.0079 111.555 10.9768 111.39 10.9807C111.222 10.9785 111.055 11.0102 110.9 11.0739C110.744 11.1376 110.603 11.232 110.484 11.3515C110.365 11.471 110.272 11.6132 110.208 11.7697C110.145 11.9263 110.114 12.094 110.116 12.2629Z" fill="white"/>
</svg>

<svg width="129" height="43" fill="none" xmlns="http://www.w3.org/2000/svg"><path d="M8.274 42.046c-.332 0-.657-.005-.988-.012a13.774 13.774 0 0 1-2.042-.18 6.401 6.401 0 0 1-1.81-.602 5.91 5.91 0 0 1-1.527-1.117A5.847 5.847 0 0 1 .79 38.6a6.315 6.315 0 0 1-.593-1.822 13.723 13.723 0 0 1-.182-2.06C.01 34.484 0 33.712 0 33.712V8.322s.01-.76.016-.984c.008-.69.069-1.377.18-2.058a6.353 6.353 0 0 1 .595-1.827c.285-.569.66-1.088 1.11-1.536A6.084 6.084 0 0 1 5.238.194a13.675 13.675 0 0 1 2.05-.18L8.275 0h112.306l.998.014c.68.008 1.359.068 2.031.179.635.108 1.25.311 1.826.602a6.13 6.13 0 0 1 2.639 2.66c.284.571.482 1.182.585 1.813.113.686.176 1.379.189 2.074.004.311.004.646.004.979.009.412.009.804.009 1.2v23.005c0 .4 0 .789-.009 1.182 0 .357 0 .685-.005 1.022a14.052 14.052 0 0 1-.186 2.037 6.311 6.311 0 0 1-.591 1.836 6.024 6.024 0 0 1-1.109 1.523 5.922 5.922 0 0 1-1.53 1.124 6.377 6.377 0 0 1-1.822.605c-.676.11-1.359.17-2.043.179-.327.008-.654.011-.981.012l-1.184.002-111.128-.002Z" fill="#000"/><path d="M26.116 21.353a5.466 5.466 0 0 1 .704-2.615 5.427 5.427 0 0 1 1.871-1.949 5.547 5.547 0 0 0-1.902-1.704 5.511 5.511 0 0 0-2.46-.667c-1.835-.194-3.614 1.104-4.549 1.104-.953 0-2.393-1.085-3.943-1.053A5.783 5.783 0 0 0 13 15.32a5.828 5.828 0 0 0-2.051 2.147c-2.114 3.681-.537 9.09 1.488 12.066 1.013 1.457 2.196 3.084 3.745 3.026 1.516-.063 2.082-.972 3.912-.972 1.813 0 2.344.972 3.924.936 1.627-.027 2.651-1.464 3.629-2.934a12.078 12.078 0 0 0 1.659-3.4 5.233 5.233 0 0 1-2.319-1.935 5.279 5.279 0 0 1-.871-2.9Zm-2.985-8.892a5.377 5.377 0 0 0 1.218-3.837 5.407 5.407 0 0 0-3.506 1.824 5.102 5.102 0 0 0-1.25 3.695 4.456 4.456 0 0 0 1.962-.432 4.483 4.483 0 0 0 1.576-1.25Zm22.145 16.41h-5.172l-1.242 3.69H36.67l4.9-13.65h2.276l4.9 13.65h-2.228l-1.242-3.69ZM40.64 27.17h4.1l-2.02-5.988h-.057l-2.023 5.988Zm18.688.416c0 3.093-1.646 5.08-4.129 5.08a3.339 3.339 0 0 1-1.805-.42 3.365 3.365 0 0 1-1.308-1.321h-.047v4.929h-2.03V22.608h1.965v1.656h.037a3.52 3.52 0 0 1 1.334-1.318 3.494 3.494 0 0 1 1.817-.442c2.51 0 4.166 1.997 4.166 5.081Zm-2.087 0c0-2.015-1.035-3.34-2.615-3.34-1.552 0-2.595 1.353-2.595 3.34 0 2.005 1.043 3.348 2.595 3.348 1.58 0 2.615-1.315 2.615-3.348Zm12.977 0c0 3.093-1.646 5.08-4.13 5.08a3.338 3.338 0 0 1-1.805-.421 3.364 3.364 0 0 1-1.307-1.32h-.047v4.929h-2.031V22.608h1.966v1.656h.037a3.52 3.52 0 0 1 1.334-1.318 3.494 3.494 0 0 1 1.816-.442c2.511 0 4.167 1.997 4.167 5.081Zm-2.088 0c0-2.015-1.035-3.34-2.614-3.34-1.552 0-2.596 1.353-2.596 3.34 0 2.005 1.044 3.348 2.596 3.348 1.58 0 2.614-1.315 2.614-3.348Zm9.285 1.172c.15 1.354 1.458 2.243 3.244 2.243 1.712 0 2.943-.89 2.943-2.11 0-1.06-.742-1.694-2.501-2.128l-1.759-.427c-2.492-.605-3.649-1.777-3.649-3.68 0-2.355 2.04-3.972 4.938-3.972 2.868 0 4.834 1.617 4.9 3.973h-2.05c-.123-1.363-1.243-2.185-2.879-2.185-1.635 0-2.755.832-2.755 2.043 0 .965.715 1.533 2.464 1.968l1.495.369c2.784.662 3.941 1.787 3.941 3.784 0 2.554-2.022 4.153-5.239 4.153-3.009 0-5.04-1.562-5.172-4.03h2.079Zm12.715-8.504v2.355h1.882v1.618h-1.882v5.487c0 .852.377 1.25 1.204 1.25.224-.005.447-.02.668-.048v1.608a5.55 5.55 0 0 1-1.128.094c-2.003 0-2.784-.756-2.784-2.686v-5.705H86.65v-1.618h1.439v-2.355h2.04Zm2.971 7.332c0-3.131 1.834-5.099 4.693-5.099 2.869 0 4.693 1.968 4.693 5.1 0 3.139-1.815 5.098-4.693 5.098-2.877 0-4.693-1.96-4.693-5.099Zm7.317 0c0-2.148-.978-3.416-2.624-3.416-1.646 0-2.623 1.278-2.623 3.416 0 2.157.977 3.415 2.623 3.415 1.645 0 2.624-1.258 2.624-3.415Zm3.744-4.977h1.937v1.694h.047c.131-.529.439-.996.872-1.324a2.353 2.353 0 0 1 1.508-.474c.234 0 .467.025.695.076v1.911a2.818 2.818 0 0 0-.912-.123 2.034 2.034 0 0 0-1.582.655 2.057 2.057 0 0 0-.534 1.635v5.903h-2.031v-9.953Zm14.423 7.03c-.273 1.806-2.022 3.046-4.26 3.046-2.879 0-4.665-1.94-4.665-5.052 0-3.121 1.796-5.146 4.579-5.146 2.738 0 4.459 1.892 4.459 4.909v.7h-6.988v.123a2.6 2.6 0 0 0 1.594 2.63c.338.138.702.203 1.068.19.479.045.961-.067 1.373-.32a2.25 2.25 0 0 0 .911-1.08h1.929Zm-6.865-2.97h4.946a2.4 2.4 0 0 0-1.47-2.347 2.367 2.367 0 0 0-.957-.18 2.488 2.488 0 0 0-1.783.735 2.517 2.517 0 0 0-.736 1.791ZM40.385 8.635a2.869 2.869 0 0 1 2.301.899 2.904 2.904 0 0 1 .767 2.36c0 2.095-1.126 3.3-3.068 3.3H38.03v-6.56h2.355Zm-1.343 5.631h1.23a2.039 2.039 0 0 0 1.633-.665 2.066 2.066 0 0 0 .517-1.694 2.078 2.078 0 0 0-.525-1.683 2.056 2.056 0 0 0-1.625-.662h-1.23v4.704Zm5.555-1.55a2.356 2.356 0 0 1 .596-1.8 2.33 2.33 0 0 1 1.725-.768 2.32 2.32 0 0 1 1.725.768 2.346 2.346 0 0 1 .595 1.8 2.358 2.358 0 0 1-.593 1.804 2.332 2.332 0 0 1-1.727.77 2.321 2.321 0 0 1-1.727-.77 2.347 2.347 0 0 1-.594-1.804Zm3.642 0c0-1.072-.479-1.7-1.32-1.7-.844 0-1.319.628-1.319 1.7 0 1.082.475 1.705 1.32 1.705.84 0 1.32-.627 1.32-1.705Zm7.169 2.478H54.4l-1.017-3.646h-.077l-1.012 3.646h-.998l-1.356-4.95h.985l.881 3.777h.073l1.011-3.777h.932l1.012 3.777h.076l.878-3.777h.97l-1.35 4.95Zm2.492-4.95h.934v.786h.073a1.466 1.466 0 0 1 1.468-.882 1.591 1.591 0 0 1 1.292.509 1.613 1.613 0 0 1 .412 1.332v3.204h-.971v-2.959c0-.795-.344-1.19-1.062-1.19a1.124 1.124 0 0 0-1.122.771 1.14 1.14 0 0 0-.053.483v2.896H57.9v-4.95Zm5.726-1.933h.971v6.883h-.97V8.312Zm2.321 4.405a2.356 2.356 0 0 1 .596-1.8 2.333 2.333 0 0 1 1.725-.768 2.32 2.32 0 0 1 1.726.768 2.35 2.35 0 0 1 .595 1.8 2.36 2.36 0 0 1-.594 1.804 2.333 2.333 0 0 1-1.727.769 2.32 2.32 0 0 1-1.727-.77 2.35 2.35 0 0 1-.594-1.803Zm3.643 0c0-1.072-.48-1.7-1.32-1.7-.845 0-1.32.628-1.32 1.7 0 1.082.475 1.705 1.32 1.705.84 0 1.32-.627 1.32-1.705Zm2.022 1.078c0-.891.659-1.405 1.83-1.478l1.333-.077v-.427c0-.523-.344-.818-1.008-.818-.542 0-.918.2-1.025.55h-.94c.099-.85.894-1.396 2.01-1.396 1.234 0 1.93.618 1.93 1.664v3.382h-.935v-.696h-.077a1.66 1.66 0 0 1-1.478.777 1.477 1.477 0 0 1-1.147-.374 1.495 1.495 0 0 1-.493-1.107Zm3.163-.423v-.414l-1.202.077c-.678.046-.985.278-.985.714 0 .446.384.705.912.705a1.154 1.154 0 0 0 1.152-.634c.07-.14.112-.292.123-.448Zm2.243-.655c0-1.564.8-2.554 2.043-2.554a1.614 1.614 0 0 1 1.508.868h.073V8.312h.971v6.882h-.93v-.782h-.077a1.712 1.712 0 0 1-1.545.864c-1.252 0-2.043-.99-2.043-2.559Zm1.003 0c0 1.05.492 1.682 1.315 1.682.818 0 1.324-.64 1.324-1.677 0-1.032-.511-1.682-1.324-1.682-.818 0-1.315.636-1.315 1.678Zm7.61 0a2.358 2.358 0 0 1 .596-1.8 2.33 2.33 0 0 1 1.725-.768 2.32 2.32 0 0 1 1.725.768 2.347 2.347 0 0 1 .595 1.8 2.36 2.36 0 0 1-.593 1.804 2.331 2.331 0 0 1-1.727.77 2.32 2.32 0 0 1-1.727-.77 2.347 2.347 0 0 1-.594-1.804Zm3.642 0c0-1.072-.479-1.7-1.32-1.7-.844 0-1.319.628-1.319 1.7 0 1.082.475 1.705 1.32 1.705.84 0 1.32-.627 1.32-1.705Zm2.302-2.472h.935v.786h.073a1.466 1.466 0 0 1 1.468-.882 1.591 1.591 0 0 1 1.292.509 1.613 1.613 0 0 1 .411 1.332v3.204h-.97v-2.959c0-.795-.344-1.19-1.063-1.19a1.124 1.124 0 0 0-1.122.771c-.052.155-.07.32-.053.483v2.896h-.97v-4.95Zm9.667-1.233v1.255h1.066v.823h-1.066v2.545c0 .519.212.746.696.746.124 0 .247-.008.37-.023v.814a3.157 3.157 0 0 1-.528.05c-1.08 0-1.51-.382-1.51-1.336V11.09h-.781v-.823h.781V9.013h.972Zm2.393-.7h.962v2.728h.077a1.509 1.509 0 0 1 1.501-.887 1.61 1.61 0 0 1 1.278.522 1.633 1.633 0 0 1 .416 1.324v3.196h-.972V12.24c0-.79-.366-1.191-1.052-1.191a1.142 1.142 0 0 0-.91.337 1.158 1.158 0 0 0-.329.918v2.89h-.971V8.313Zm9.897 5.546a2.009 2.009 0 0 1-.808 1.105c-.39.262-.858.378-1.324.327a2.227 2.227 0 0 1-1.725-.748 2.26 2.26 0 0 1-.549-1.807 2.297 2.297 0 0 1 .548-1.814 2.27 2.27 0 0 1 1.721-.772c1.369 0 2.196.941 2.196 2.496v.34h-3.475v.055a1.32 1.32 0 0 0 .343 1 1.304 1.304 0 0 0 .967.418 1.172 1.172 0 0 0 1.171-.6h.935Zm-3.416-1.595h2.485a1.2 1.2 0 0 0-.728-1.191 1.181 1.181 0 0 0-.483-.091 1.247 1.247 0 0 0-.906.37 1.275 1.275 0 0 0-.368.912Z" fill="#fff"/></svg>
